X:96
M:6/8
L:1/8
Q:"Allegretto  "3/8=110
K:F
!p!C| F2 G [A2F2] [dB]|[c2A2] A (A<G) F|\
L(A>GF) F2 F|L(A>G)G G2 F|
L(A>GF) F2 F|(A>GF) F2 z||
!mf![f2A2] [cA] [c2A2] [AF]|([dB][cA][AF]) [A2F2] F|\
L(A>GF) F2 F|L(A>G)G G2 [cGE]|
([f2c2A2][cA]) ([dB][cA][AF])|([c2A2] [dB] [f2A2]) A|\
L(A>GF) F2 A|(A>GF) HF2||

